public/icons/icon/external-link.svg

<svg width="30" height="30" viewBox="0 0 30 30" fill="none" xmlns="http://www.w3.org/2000/svg">
<path d="M13 5H7C5.89543 5 5 5.89543 5 7V23C5 24.1046 5.89543 25 7 25H23C24.1046 25 25 24.1046 25 23V17M19 5H25M25 5V11M25 5L13 17" stroke="black" stroke-width="2" stroke-linecap="round" stroke-linejoin="round"/>
</svg>

<svg xmlns="http://www.w3.org/2000/svg" width="30" height="30" fill="none"><path stroke="#000" stroke-linecap="round" stroke-linejoin="round" stroke-width="2" d="M13 5H7a2 2 0 0 0-2 2v16a2 2 0 0 0 2 2h16a2 2 0 0 0 2-2v-6M19 5h6m0 0v6m0-6L13 17"/></svg>
